X: 1
T: Tune #3 from DB and MW   [Fm]
S: PDF from Jon Cannon
R: zhok, horra
Z: 2014 John Chambers <jc:trillian.mit.edu>
Q: "Zhok"
M: 3/8
L: 1/16
K: Fm
|:\
c3_cB_B | A3BGA | F6- | F6 |\
f3_fe_e | d3ecd | B6- | B6 |
c3_cB_B | A3BGA | F3GAB | c3fed |\
c3dBc | A3BGA |[1 F6- | F6 :|[2 F3ced | c3BAG ||
|:\
A4A2 | A4GF | G4G2 | G6 |\
B4B2 | B4AG | F3GAB | c6 |
c4c2 | c4BA | B4c2 | d3fed |\
c3dBc | A3BGA |[1 F3ced | c3BAG :|[2 F6- | F6 |]

%%sep 1 1 500
%%sep 1 1 500

